X: 16035
T: Green Cottage, The
R: polka
M: 2/4
K: Edorian
B>A|GE ED|B,E E2|G>F ED|GA B/=c/B/A/|
GE ED|B,E E2|B>A GF|E2 B>A|
GE ED|B,D A,D|B,D A,D|B2 B/=c/B/A/|
GE ED|B,E E2|B/=c/B/A/ GF|E2 B>A||
|:Be ef|eB BA|Be df|e2 ef|
ga/g/ fg/f/|ed BA|BE E/F/G/A/|B2 B>A:|

